X:1
T:A minor Daniel Read, 1785
T:Isaac Watts, 1719 (Psalm 25)  66. 86. (S. M.) 
T:Norton No Copyright. Transcribed from the American Singing-Book, 1786.
%%score [ 1 2 3 4 ]
L:1/8
M:4/4
K:C
V:1 treble nm="Treble" snm="Tr."
V:2 treble nm="Counter" snm="C."
V:3 treble-8 nm="Tenor" snm="T."
V:4 bass nm="Bass" snm="B."
V:1
 A8 | c2 B2 A2 B2 | c4 c4 | B2 A2 B2 c>d | e8 | e4 c2 d2 | e2 d2 c2 B2 | B4 B4 | A2 c2 BA G2 | %9
w: |||||||||
 A8 |: z8 | z4 e4 | d2 B2 c2 c2 | B2 B2 A2 c2 | B2 e2 e2 c2 | (B3 A G2) B2 | c2 A2 B2 G2 | %17
w: ||1.~I|love to plead His|pro- mi- ses, and|rest up- on His|word,~ _ _ I|love to plead His|
 A2 B2 c2 cB | A2 A2 ^G2 G2 | A8 :| %20
w: pro- mi- ses, And *|rest up- on His|word.|
V:2
 E8 | E2 E2 E2 E2 | E4 E4 | E2 EF G2 ^F2 | G8 | E4 G2 G>F | E>F G2 A2 G2 | G4 G4 | E2 F2 E2 E2 | %9
w: 1.~Mine|eyes and my de-|sire Are|ev- er * to the|Lord;|I love to *|plead * His pro- mi-|ses, And|rest up- on His|
 E8 |: z8 | z8 | z8 | z4 A4 | G2 G2 G2 EF | G2 G2 G2 GF | E2 E2 E2 E2 | E6 E2 | F2 F2 E2 E2 | E8 :| %20
w: word.||||1.~I|love to plead His *|pro- mi- ses, and *|rest up- on His|word, And|rest up- on His|word.|
V:3
 A8 | A2 B2 c2 B2 | A4 A4 | B2 c2 d2 c2 | B8 | A4 G2 E2 | A2 B2 c2 d2 | e4 e4 | c2 BA B2 B2 | A8 |: %10
w: ||||||||||
 z8 | z8 | z4 e4 | d2 B2 c2 A2 | B2 c2 B2 c>d | e2 c2 d4 | c4 B4 | e4 c2 e2 | (d2 c2) B4 | A8 :| %20
w: ||1.~I|love to plead His|pro- mi- ses, and *|rest up- on|His word,|And rest up-|on * His|word.|
V:4
 A,8 | A,2 E,D, C,D, E,2 | A,,4 A,,4 | E,2 A,2 G,2 A,2 | E,8 | A,4 E,F, G,2 | C2 B,2 A,2 B,2 | %7
w: |||||||
 E,4 E,4 | A,2 A,2 E,2 E,2 | A,,8 |: z4 A,4 | G,2 E,2 E,2 C,2 | D,2 E,2 A,,2 C,2 | %13
w: |||1.~I|love to plead His|pro- mi- ses, and|
 G,2 G,2 A,2 A,2 | E,8- | E,2 E,2 G,2 G,2 | C,2 C,2 E,2 E,2 | A,,2 E,2 A,2 A,2 | D,4 E,4 | A,,8 :| %20
w: rest up- on His|word,~|_ I love to|plead His pro- mi-|ses, And rest up-|on His|word.|

